X: 2
T: Missa Da pacem / Gloria
N: Derived from Mou1020b-Missa_Da_pacem-Gloria.krn
%%abc-version 2.0
%%abcx-abcm2ps-target-version 5.9.1 (29 Sep 2008)
%%abc-creator hum2abc beta
%%abcx-conversion-date 2019/02/17 07:22:03
%%abc-edited-by Jesse Rodin
%%abc-edited-by Victoria Chang 2011/04/18
%%abcx-initial-encoding-date 2011/04/18/
%%humdrum-veritas 1795895415
%%humdrum-veritas-data 1679890904
%%linebreak <none>
%%barnumbers 0
L: 1/4
M: 3/1
Q: 1/2=120
%%staves [1 2 3 4]
V: 1 clef=treble
V: 2 clef=treble-8
V: 3 clef=treble-8
V: 4 clef=bass
K: F
[V:1] z12 | 
[V:2] G8F4 | 
[V:3] z12 | 
[V:4] z12 | 
[V:1] G8F4 | 
[V:2] G3AB2G2A4 | 
[V:3] z12 | 
[V:4] z12 | 
[V:1] G3AB2G2A4 | 
[V:2] GABcd2e2f2d2- | 
[V:3] z12 | 
[V:4] G,8F,4 | 
[V:1] G8z2c2- | 
[V:2] d2e2d2g4^f2 | 
[V:3] z12 | 
[V:4] G,3A,B,2G,2A,4 | 
[V:1] c2B2c4G4- | 
[V:2] g4e4z2c2 | 
[V:3] G12- | 
[V:4] G,4C,8 | 
[V:1] G4z2G2G2G2 | 
[V:2] c2c2_e2_e2B4 | 
[V:3] G12 | 
[V:4] z2C,2C,2C,2_E,2E,2 | 
[V:1] B2B2F4z2F2 | 
[V:2] z2B2B2B2d4- | 
[V:3] F12- | 
[V:4] B,,4z2B,,2B,,2B,,2 | 
[V:1] F2F2A2F2B2B2 | 
[V:2] d4z2A2d2d2 | 
[V:3] F12 | 
[V:4] D,8z2B,,2 | 
[V:1] G3FE2D2E4 | 
[V:2] B4c2d3cc2- | 
[V:3] G12- | 
[V:4] _E,2E,2C,2B,,2C,4 | 
[V:1] D4E6E2 | 
[V:2] c2=B2c8 | 
[V:3] G12 | 
[V:4] G,,4C,6C,2 | 
[V:1] D2G4FEF2D2 | 
[V:2] z4G4F4 | 
[V:3] B12 | 
[V:4] B,,2_E,4D,C,D,4 | 
[V:1] ECc3BB4A2 | 
[V:2] G4g4f4 | 
[V:3] c12 | 
[V:4] C,4_E,4F,4 | 
[V:1] B8z4 | 
[V:2] d2g2g2g2d2e2 | 
[V:3] B12 | 
[V:4] G,4z2G,2G,2G,2 | 
[V:1] z12 | 
[V:2] f3edcc4=B2 | 
[V:3] z12 | 
[V:4] D,2F,3E,D,C,D,4 | 
[V:1] z2G2G2G2E2F2- | 
[V:2] c4z2c4d2- | 
[V:3] z12 | 
[V:4] C,8z4 | 
[V:1] F2EDE4D4 | 
[V:2] d2cBc4d3c | 
[V:3] A8B4- | 
[V:4] z4z4B,,4 | 
[V:1] z2D2F2G2A4 | 
[V:2] B3A/G/FDG4^F2 | 
[V:3] B4c8 | 
[V:4] B,,4A,,8 | 
[V:1] G4d6cB | 
[V:2] G4z4f4- | 
[V:3] B6AGA2d2- | 
[V:4] G,,2G,4F,2D,4- | 
[V:1] AGA4G2D2F2- | 
[V:2] f2f2d2_e2f_edc | 
[V:3] d2c2A2B4A2 | 
[V:4] D,2F,4_E,2B,,2D,2- | 
[V:1] F2E2C2E4D2 | 
[V:2] B2c6A2B2- | 
[V:3] F2A4G2E2F2 | 
[V:4] D,2C,2A,,2C,4B,,2 | 
[V:1] E2F2D2G4F2 | 
[V:2] B2A2d2e2d2c2- | 
[V:3] G2A2B2c2A4 | 
[V:4] G,,2D,4C,2D,2F,2 | 
[V:1] G6FEE4 | 
[V:2] c2B2c6BA | 
[V:3] G12 | 
[V:4] _E,4C,4z2C,2- | 
[V:1] z2D2E2D2E4 | 
[V:2] GAB2A2B3AAG | 
[V:3] z12 | 
[V:4] C,2B,,2C,2B,,2C,4 | 
[V:1] D2G4F2G2F2 | 
[V:2] B4z2d2G2d2 | 
[V:3] B8B4 | 
[V:4] B,,2_E,4D,2E,2D,2 | 
[V:1] G2F3_EG4^F2 | 
[V:2] B2d2_e2c2d4 | 
[V:3] B4A2G2A4 | 
[V:4] _E,2D,2C,2E,2D,4 | 
[V:1] G4G6G2 | 
[V:2] d6d2_e4 | 
[V:3] G12 | 
[V:4] G,,8C,4- | 
[V:1] G2G2_E8 | 
[V:2] _e3dc2B4A2 | 
[V:3] z12 | 
[V:4] C,2C,2C,4C,4 | 
[V:1] D2G2F2G4FE | 
[V:2] B4z4z4 | 
[V:3] B12 | 
[V:4] B,,2_E,2D,2E,4D,C, | 
[V:1] F2G2z4z2D2 | 
[V:2] z2G2F2G4F2 | 
[V:3] B12 | 
[V:4] B,,2_E,2D,2E,4D,2 | 
[V:1] E2C4c3BAG | 
[V:2] G2A4GFG4 | 
[V:3] c12 | 
[V:4] C,2F,4E,D,E,4 | 
[V:1] F4A4B4 | 
[V:2] A2B3AA4G2 | 
[V:3] d12 | 
[V:4] D,6C,2B,,4 | 
[V:1] c6BAG2E2 | 
[V:2] A4G3FE4 | 
[V:3] c12 | 
[V:4] A,,4C,8 | 
[V:1] F4G4B4- | 
[V:2] D8z4 | 
[V:3] d12 | 
[V:4] B,,4G,,4G,4- | 
[V:1] B2A2G4G4 | 
[V:2] G4B4c4 | 
[V:3] _e12 | 
[V:4] G,2F,2_E,2D,2C,4 | 
[V:1] F8B4- | 
[V:2] A4B6AG | 
[V:3] d8z4 | 
[V:4] D,6C,B,,B,,4- | 
[V:1] B2AGF3GA4 | 
[V:2] F4z2f4f2 | 
[V:3] z2d2d4c4 | 
[V:4] B,,4B,,C,D,E,F,4 | 
[V:1] B2c3BB4A2 | 
[V:2] d2f4e2f4 | 
[V:3] B2A2B4c4 | 
[V:4] G,2F,2G,4F,4 | 
[V:1] B6B2B4- | 
[V:2] f4z4d4- | 
[V:3] B8z4 | 
[V:4] B,,4B,,6B,,2 | 
[V:1] B2AGF3GABc2 | 
[V:2] d2d2d4c2f2- | 
[V:3] B4B4A4 | 
[V:4] B,,3C,D,3E,F,4 | 
[V:1] B2G4A2B4- | 
[V:2] f2d2_e4d4 | 
[V:3] B4c4B4 | 
[V:4] G,4C,4G,4 | 
[V:1] B2AGFDG4^F2 | 
[V:2] _e2c2d2_e2d4 | 
[V:3] G3AB2c2A4 | 
[V:4] _E,4D,2C,2D,4 | 
[V:1] G4z2F2G2F2 | 
[V:2] B4c2d2c2d2 | 
[V:3] G4z4z4 | 
[V:4] z2_E,4D,2E,2D,2 | 
[V:1] G4F6A2- | 
[V:2] G4d8 | 
[V:3] z2B4A2B2A2 | 
[V:4] _E,4D,8 | 
[V:1] AGG4^F2G4 | 
[V:2] z2d2_e2d2B4 | 
[V:3] B4A4z4 | 
[V:4] z2B,,2C,2D,2_E,4- | 
[V:1] z2F2G2F2G4 | 
[V:2] c2d2c2d2G4 | 
[V:3] z4z4z2B2- | 
[V:4] E,2D,2_E,2D,2E,4 | 
[V:1] F8z2D2 | 
[V:2] d12 | 
[V:3] B2A2B2A2B4 | 
[V:4] D,8z2B,,2 | 
[V:1] _E2D4C2D2d2 | 
[V:2] z2f2_e2g2f2d2 | 
[V:3] A2F2G3AB4 | 
[V:4] C,2D,2_E,4D,2B,,2 | 
[V:1] c2B4AGF2DE | 
[V:2] _e2d4c2d4- | 
[V:3] A2F2G3AB4 | 
[V:4] C,2D,2_E,4D,4- | 
[V:1] FGABA2G4^F2 | 
[V:2] d4z2d2_e2d2 | 
[V:3] A2F2B4A4 | 
[V:4] D,4z2B,,2C,2D,2 | 
[V:1] G12- | 
[V:2] z2B2c2d2_e4- | 
[V:3] G12- | 
[V:4] _E,6D,C,C,4- | 
[V:1] G12 ||  
[V:2] e2dcc8 ||  
[V:3] G12 ||  
[V:4] C,12 ||  
[V:1] [M:2/1]z8 | 
[V:2] [M:2/1]c8 | 
[V:3] [M:2/1]G8- | 
[V:4] [M:2/1]C,8 | 
[V:1] G8 | 
[V:2] e4e4 | 
[V:3] G8- | 
[V:4] C,4C,4 | 
[V:1] G4E4 | 
[V:2] d4c4 | 
[V:3] G8 | 
[V:4] G,,4C,4 | 
[V:1] F4D4 | 
[V:2] A4B4 | 
[V:3] F8 | 
[V:4] D,8 | 
[V:1] E4E4 | 
[V:2] c8 | 
[V:3] G8 | 
[V:4] C,8 | 
[V:1] D8 | 
[V:2] F4G4- | 
[V:3] B8 | 
[V:4] B,,6A,,G,, | 
[V:1] z8 | 
[V:2] G2^FE^F4 | 
[V:3] c8 | 
[V:4] A,,8 | 
[V:1] D8 | 
[V:2] G4G3A | 
[V:3] B4B3c | 
[V:4] G,,4G,4- | 
[V:1] D2G4FE | 
[V:2] B2G4c2 | 
[V:3] d2B2c2A2 | 
[V:4] G,2G,2E,2F,2 | 
[V:1] D2E2F2G2- | 
[V:2] B2G2A3G | 
[V:3] B2c2d2_e2- | 
[V:4] G,2F,E,D,2C,2 | 
[V:1] GFB4A2 | 
[V:2] Bcdef4 | 
[V:3] edcBc4 | 
[V:4] G,4F,4 | 
[V:1] B8 | 
[V:2] d4z2d2 | 
[V:3] B8 | 
[V:4] z2G,2G,2G,2 | 
[V:1] z2A2A2A2 | 
[V:2] d2d2A2A2 | 
[V:3] z8 | 
[V:4] D,2D,2F,2F,2 | 
[V:1] E2E2G2G2 | 
[V:2] c2c2G3A | 
[V:3] z8 | 
[V:4] C,8 | 
[V:1] D4z4 | 
[V:2] Bcd4c2 | 
[V:3] z8 | 
[V:4] B,,4_E,4 | 
[V:1] z4A4- | 
[V:2] d8 | 
[V:3] A8- | 
[V:4] D,8 | 
[V:1] A2A2F4 | 
[V:2] z4d4- | 
[V:3] A8 | 
[V:4] D,6D,2 | 
[V:1] F4B4 | 
[V:2] d2d2B4 | 
[V:3] B8- | 
[V:4] B,,4B,,4 | 
[V:1] B4G4 | 
[V:2] B4_e4 | 
[V:3] B8 | 
[V:4] _E,4E,4 | 
[V:1] G4c4- | 
[V:2] _e4c4 | 
[V:3] c8- | 
[V:4] C,4C,4 | 
[V:1] c4F4 | 
[V:2] c4f4- | 
[V:3] c8 | 
[V:4] F,8 | 
[V:1] z2B3AG2- | 
[V:2] f4B4 | 
[V:3] B8 | 
[V:4] B,,8 | 
[V:1] G2F_EF4 | 
[V:2] _e4d4 | 
[V:3] A8 | 
[V:4] C,4D,4 | 
[V:1] G4z2c2 | 
[V:2] B3cd2_e2- | 
[V:3] G2B4A2 | 
[V:4] _E,4D,2C,2 | 
[V:1] B2d4cB | 
[V:2] edBcd4- | 
[V:3] G2B4A2 | 
[V:4] _E,3D,B,,C,D,2- | 
[V:1] A2G4A2 | 
[V:2] d4G2c2- | 
[V:3] F2B4A2 | 
[V:4] D,2B,,2_E,2C,2- | 
[V:1] E2G4^F2 | 
[V:2] c2d2_e2d2 | 
[V:3] G2B2A4 | 
[V:4] C,2B,,2C,2D,2 | 
[V:1] [M:3/1]G8z4 | 
[V:2] [M:3/1]B6c2d4 | 
[V:3] [M:3/1]G8z4 | 
[V:4] [M:3/1]G,,12 | 
[V:1] B12 | 
[V:2] G6A2B2c2 | 
[V:3] z12 | 
[V:4] z12 | 
[V:1] B4G4B4- | 
[V:2] d4e4d4 | 
[V:3] z12 | 
[V:4] z12 | 
[V:1] B4A8 | 
[V:2] g8^f4 | 
[V:3] z12 | 
[V:4] z12 | 
[V:1] G8z4 | 
[V:2] g8z4 | 
[V:3] B8B4 | 
[V:4] G,,6A,,2B,,2C,2 | 
[V:1] z12 | 
[V:2] z12 | 
[V:3] B4G4B4- | 
[V:4] D,4E,4D,4 | 
[V:1] z12 | 
[V:2] z12 | 
[V:3] B4A8 | 
[V:4] G,6^F,E,F,4 | 
[V:1] z4z4B4 | 
[V:2] z4z4g4 | 
[V:3] G8z4 | 
[V:4] G,12 | 
[V:1] B6c2d2B2 | 
[V:2] g6e2f2g2 | 
[V:3] z12 | 
[V:4] z12 | 
[V:1] c2d2_e6d2 | 
[V:2] e2f2g6f2 | 
[V:3] z12 | 
[V:4] z12 | 
[V:1] d8c4 | 
[V:2] d4_e8 | 
[V:3] z12 | 
[V:4] z12 | 
[V:1] d8z4 | 
[V:2] d12 | 
[V:3] z4z4B4 | 
[V:4] z4z4G,4 | 
[V:1] z12 | 
[V:2] z12 | 
[V:3] B6c2d2B2 | 
[V:4] G,6E,2F,2G,2 | 
[V:1] z12 | 
[V:2] z12 | 
[V:3] c2d2_e6d2 | 
[V:4] E,2F,2G,6F,2 | 
[V:1] z12 | 
[V:2] z12 | 
[V:3] d8c4 | 
[V:4] D,4_E,8 | 
[V:1] A6G2A4 | 
[V:2] f4e2d2c4 | 
[V:3] d8z4 | 
[V:4] D,6E,2F,4 | 
[V:1] B6A2F4 | 
[V:2] B8A4 | 
[V:3] d8d4- | 
[V:4] B,,6C,2D,4 | 
[V:1] G4E8 | 
[V:2] B4c4A4 | 
[V:3] d4c8 | 
[V:4] G,,4A,,8 | 
[V:1] D4_E4D2B,2 | 
[V:2] d4c4f4- | 
[V:3] B4A4B4 | 
[V:4] B,,4C,4B,,4- | 
[V:1] B8A4 | 
[V:2] f12 | 
[V:3] d4c8 | 
[V:4] B,,4F,8 | 
[V:1] B12 | 
[V:2] d8d4 | 
[V:3] B12 | 
[V:4] B,,8G,,4 | 
[V:1] z4z4F4 | 
[V:2] d4e4d4 | 
[V:3] z4z4B4 | 
[V:4] B,,4C,4D,4 | 
[V:1] G4A4D4 | 
[V:2] G4c4B4 | 
[V:3] B4A4B4 | 
[V:4] E,4F,4G,4 | 
[V:1] E8D4 | 
[V:2] G8d4 | 
[V:3] c6B2A4 | 
[V:4] C,8D,4 | 
[V:1] G6^F2F2E2 | 
[V:2] c4d8 | 
[V:3] G4A8 | 
[V:4] E,4D,8 | 
[V:1] [M:2/1]G2B2A2F2 | 
[V:2] [M:2/1]d4f4 | 
[V:3] [M:2/1]G4z2d2 | 
[V:4] [M:2/1]G,,4z4 | 
[V:1] A2A2G2G2 | 
[V:2] e2c2d2e2 | 
[V:3] c2A2B2G2 | 
[V:4] z8 | 
[V:1] G4z2F2 | 
[V:2] d2d2d4 | 
[V:3] B2B2A4 | 
[V:4] z2G,2F,2D,2 | 
[V:1] G2E2G2G2 | 
[V:2] z4z2c2 | 
[V:3] z2c2B2G2 | 
[V:4] _E,2C,2E,2E,2 | 
[V:1] F4z2F2 | 
[V:2] d4c2A2 | 
[V:3] A2F2A4 | 
[V:4] D,4z2F,2 | 
[V:1] G2E2F2D2 | 
[V:2] B2c2A2d2- | 
[V:3] G4z2B2 | 
[V:4] _E,2C,2D,2B,,2 | 
[V:1] F2F2E4 | 
[V:2] d2B2c4 | 
[V:3] A3FG2E2 | 
[V:4] D,4C,4 | 
[V:1] D2C2D4 | 
[V:2] B2G2A2B2 | 
[V:3] G2G2F4 | 
[V:4] z2_E,2D,2B,,2 | 
[V:1] z2E4DC | 
[V:2] A2c4c2 | 
[V:3] A4G4 | 
[V:4] C,2A,,2C,2C,2 | 
[V:1] D2G4^F2 | 
[V:2] d8 | 
[V:3] B4A4 | 
[V:4] B,,2G,,2D,4 | 
[V:1] G4z2G2- | 
[V:2] B4z2G2- | 
[V:3] z2d4B2 | 
[V:4] G,,4G,4 | 
[V:1] G2F2D2E2 | 
[V:2] G2A2B2G2 | 
[V:3] c2d2B2c2- | 
[V:4] E,2F,2G,2E,2 | 
[V:1] C2F4E2 | 
[V:2] A2F4G2 | 
[V:3] c2A2B2c2 | 
[V:4] F,4D,2E,2 | 
[V:1] C2D2B,2_E2- | 
[V:2] A2F2G2_E2- | 
[V:3] A2B4G2 | 
[V:4] F,2D,2_E,4 | 
[V:1] E2D2B,2C2 | 
[V:2] E2F2G2=E2 | 
[V:3] A2B2G2A2- | 
[V:4] C,2D,2_E,2C,2 | 
[V:1] A,2A2B2A2- | 
[V:2] F2D2d2e2 | 
[V:3] A2F2G2A2- | 
[V:4] D,4B,,2C,2 | 
[V:1] AGG4^F2 | 
[V:2] f2d2_e2d2- | 
[V:3] AFG2A4 | 
[V:4] D,3B,,C,2D,2 | 
[V:1] G8- | 
[V:2] d2B2_e4- | 
[V:3] G8- | 
[V:4] B,,4C,4 | 
[V:1] G8 |]  
[V:2] e2d2d4 |]  
[V:3] G8 |]  
[V:4] G,,8 |]  



